html-css/module-10/img/twitter.svg

<svg xmlns:xlink="http://www.w3.org/1999/xlink" viewBox="0 0 26 22">
<path d="M17.513,0.601 C19.547,0.565 20.630,1.306 21.664,2.248 C22.542,2.173 23.683,1.683 24.355,1.341 C24.572,1.223 24.790,1.103 25.008,0.984 C24.624,2.021 24.104,2.833 23.304,3.450 C23.126,3.586 22.950,3.771 22.727,3.858 C22.727,3.862 22.727,3.867 22.727,3.871 C23.867,3.860 24.807,3.345 25.700,3.066 C25.700,3.070 25.700,3.075 25.700,3.079 C25.231,3.824 24.596,4.581 23.919,5.123 C23.646,5.340 23.372,5.557 23.099,5.774 C23.114,6.981 23.081,8.133 22.856,9.147 C21.544,15.042 18.068,19.044 12.567,20.759 C10.591,21.374 7.399,21.627 5.135,21.065 C4.013,20.787 2.999,20.472 2.048,20.056 C1.519,19.825 1.029,19.575 0.561,19.289 C0.407,19.196 0.254,19.102 0.100,19.009 C0.610,19.024 1.208,19.165 1.778,19.072 C2.295,18.989 2.801,19.011 3.278,18.907 C4.466,18.646 5.521,18.301 6.429,17.769 C6.870,17.511 7.539,17.209 7.852,16.837 C7.262,16.847 6.727,16.710 6.289,16.556 C4.590,15.956 3.601,14.853 2.957,13.196 C3.472,13.253 4.955,13.387 5.302,13.094 C4.654,13.058 4.031,12.683 3.585,12.404 C2.218,11.549 1.104,10.115 1.112,7.908 C1.292,7.993 1.471,8.078 1.650,8.163 C1.994,8.308 2.343,8.385 2.752,8.470 C2.925,8.506 3.271,8.607 3.470,8.533 C3.461,8.533 3.453,8.533 3.444,8.533 C3.180,8.226 2.749,8.021 2.483,7.690 C1.606,6.601 0.785,4.924 1.304,2.926 C1.436,2.419 1.645,1.972 1.868,1.559 C1.877,1.563 1.885,1.567 1.894,1.571 C1.996,1.785 2.224,1.942 2.368,2.121 C2.816,2.676 3.368,3.175 3.931,3.615 C5.849,5.115 7.576,6.037 10.350,6.719 C11.054,6.893 11.867,7.025 12.708,7.026 C12.472,6.339 12.548,5.226 12.733,4.561 C13.201,2.887 14.216,1.682 15.706,1.035 C16.062,0.881 16.457,0.768 16.872,0.677 C17.086,0.652 17.299,0.626 17.513,0.601 Z"/>
</svg>

<svg viewBox="0 0 26 22"><path d="M17.51.6a5.4 5.4 0 0 1 4.15 1.65 8.48 8.48 0 0 0 2.7-.9L25 .97a5.26 5.26 0 0 1-1.7 2.47c-.18.14-.36.32-.58.4v.02c1.14-.01 2.08-.52 2.97-.8a8.5 8.5 0 0 1-1.78 2.05l-.82.65c.01 1.21-.02 2.36-.24 3.38-1.32 5.9-4.8 9.9-10.3 11.6-1.97.62-5.16.88-7.43.32a19.1 19.1 0 0 1-3.08-1.01c-.53-.23-1.02-.48-1.49-.77L.1 19c.51.01 1.1.15 1.68.06.51-.08 1.02-.06 1.5-.16 1.19-.26 2.24-.6 3.15-1.14.44-.26 1.1-.56 1.42-.93a5.28 5.28 0 0 1-4.9-3.64c.52.05 2 .19 2.35-.1a3.85 3.85 0 0 1-1.71-.7A5.05 5.05 0 0 1 1.1 7.9a5.8 5.8 0 0 0 1.64.56c.17.05.52.15.72.07h-.03c-.26-.3-.7-.5-.96-.84A5.37 5.37 0 0 1 1.3 2.93c.14-.51.34-.96.57-1.37l.02.01c.1.21.33.37.48.55.45.56 1 1.05 1.56 1.5a15.46 15.46 0 0 0 6.42 3.1c.7.17 1.52.3 2.36.3-.24-.68-.16-1.8.02-2.46A5.18 5.18 0 0 1 16.87.68l.64-.08z"/></svg>
